svg/fluentui-system-icons/ic_fluent_puzzle_cube_16_regular.svg

<svg width="16" height="16" viewBox="0 0 16 16" fill="none" xmlns="http://www.w3.org/2000/svg">
<path d="M2 5V11.5C2 12.8807 3.11929 14 4.5 14H11.5C12.8807 14 14 12.8807 14 11.5V4.5C14 3.11929 12.8807 2 11.5 2H4.99866V3H5V5H2ZM10 13H6V11L10 11V13ZM3 11H5V13H4.5C3.67157 13 3 12.3284 3 11.5V11ZM10 10L6 10V6L10 6V10ZM3 6H5V10H3V6ZM10 5L6 5V3H10V5ZM11 6H13V10H11V6ZM11 11H13V11.5C13 12.3284 12.3284 13 11.5 13H11V11ZM13 4.5V5H11V3H11.5C12.3284 3 13 3.67157 13 4.5Z" fill="#212121"/>
</svg>

<svg xmlns="http://www.w3.org/2000/svg" width="16" height="16"><path d="M2 5v6.5A2.5 2.5 0 0 0 4.5 14h7a2.5 2.5 0 0 0 2.5-2.5v-7A2.5 2.5 0 0 0 11.5 2H4.999v1H5v2H2Zm8 8H6v-2h4v2Zm-7-2h2v2h-.5A1.5 1.5 0 0 1 3 11.5V11Zm7-1H6V6h4v4ZM3 6h2v4H3V6Zm7-1H6V3h4v2Zm1 1h2v4h-2V6Zm0 5h2v.5a1.5 1.5 0 0 1-1.5 1.5H11v-2Zm2-6.5V5h-2V3h.5A1.5 1.5 0 0 1 13 4.5Z"/></svg>
